JellyTune.Gnome/Resources/jellytune-icon.svg

<?xml version="1.0" encoding="UTF-8" standalone="no"?>
<!-- Created with Inkscape (http://www.inkscape.org/) -->

<svg
   inkscape:export-ydpi="96"
   inkscape:export-xdpi="96"
   inkscape:export-filename="Template.png"
   width="128"
   height="128"
   id="svg11300"
   sodipodi:version="0.32"
   inkscape:version="1.4.2 (ebf0e940d0, 2025-05-08)"
   sodipodi:docname="icon.svg"
   inkscape:output_extension="org.inkscape.output.svg.inkscape"
   version="1.0"
   style="display:inline;enable-background:new"
   viewBox="0 0 128 128"
   xml:space="preserve"
   xmlns:inkscape="http://www.inkscape.org/namespaces/inkscape"
   xmlns:sodipodi="http://sodipodi.sourceforge.net/DTD/sodipodi-0.dtd"
   xmlns:xlink="http://www.w3.org/1999/xlink"
   xmlns="http://www.w3.org/2000/svg"
   xmlns:svg="http://www.w3.org/2000/svg"
   xmlns:rdf="http://www.w3.org/1999/02/22-rdf-syntax-ns#"
   xmlns:cc="http://creativecommons.org/ns#"
   xmlns:dc="http://purl.org/dc/elements/1.1/"><title
     id="title4162">Adwaita Icon Template</title><defs
     id="defs3"><linearGradient
       y2="236"
       x2="96"
       y1="236"
       x1="32"
       gradientTransform="translate(604.81684,170.58641)"
       gradientUnits="userSpaceOnUse"
       id="linearGradient1099"
       xlink:href="#linearGradient1036" /><linearGradient
       id="linearGradient1036"><stop
         id="stop1032"
         offset="0"
         style="stop-color:#d5d3cf;stop-opacity:1;" /><stop
         id="stop1034"
         offset="1"
         style="stop-color:#f6f5f4;stop-opacity:1" /></linearGradient><radialGradient
       r="32"
       fy="-76"
       fx="-244"
       cy="-76"
       cx="-244"
       gradientTransform="matrix(0.88333331,0,0,0.88333331,-460.35018,463.11973)"
       gradientUnits="userSpaceOnUse"
       id="radialGradient1103"
       xlink:href="#linearGradient1069" /><linearGradient
       id="linearGradient1069"><stop
         id="stop1065"
         offset="0"
         style="stop-color:#d5d3cf;stop-opacity:1" /><stop
         id="stop1067-1"
         offset="1"
         style="stop-color:#949390;stop-opacity:1" /></linearGradient><linearGradient
       gradientUnits="userSpaceOnUse"
       y2="232"
       x2="64"
       y1="262.5"
       x1="64"
       id="linearGradient1027"
       xlink:href="#linearGradient1025"
       gradientTransform="translate(-470.5864,432.81685)" /><linearGradient
       id="linearGradient1025"><stop
         id="stop1021"
         offset="0"
         style="stop-color:#9a9996;stop-opacity:1" /><stop
         id="stop1023"
         offset="1"
         style="stop-color:#77767b;stop-opacity:1" /></linearGradient><inkscape:path-effect
       effect="spiro"
       id="path-effect35304-9"
       is_visible="true" /><clipPath
       clipPathUnits="userSpaceOnUse"
       id="clipPath1609-7"><path
         sodipodi:nodetypes="cccccc"
         inkscape:connector-curvature="0"
         id="path1611-5"
         d="m 252,116 28,-28 v -8 h -36 v 36 z"
         style="fill:#e74747;stroke:none;stroke-width:0.25px;stroke-linecap:butt;stroke-linejoin:miter;stroke-opacity:1" /></clipPath><linearGradient
       id="paint0_linear_8_15"
       x1="16.9859"
       y1="53.5218"
       x2="136.216"
       y2="118.414"
       gradientUnits="userSpaceOnUse"><stop
         offset="0.0172405"
         stop-color="#AA5DC3"
         id="stop2" /><stop
         offset="1"
         stop-color="#0E9EDA"
         id="stop3" /></linearGradient></defs><sodipodi:namedview
     stroke="#ef2929"
     fill="#f57900"
     id="base"
     pagecolor="#ffffff"
     bordercolor="#666666"
     borderopacity="0.25490196"
     inkscape:pageopacity="0.0"
     inkscape:pageshadow="2"
     inkscape:zoom="4.2631929"
     inkscape:cx="58.406928"
     inkscape:cy="60.283456"
     inkscape:current-layer="layer4"
     showgrid="false"
     inkscape:grid-bbox="true"
     inkscape:document-units="px"
     inkscape:showpageshadow="false"
     inkscape:window-width="1440"
     inkscape:window-height="831"
     inkscape:window-x="0"
     inkscape:window-y="0"
     width="400px"
     height="300px"
     inkscape:snap-nodes="true"
     inkscape:snap-bbox="true"
     objecttolerance="7"
     gridtolerance="12"
     guidetolerance="13"
     inkscape:window-maximized="1"
     inkscape:pagecheckerboard="false"
     showguides="false"
     inkscape:guide-bbox="true"
     inkscape:locked="false"
     inkscape:measure-start="0,0"
     inkscape:measure-end="0,0"
     inkscape:object-nodes="true"
     inkscape:bbox-nodes="true"
     inkscape:snap-global="true"
     inkscape:object-paths="true"
     inkscape:snap-intersection-paths="true"
     inkscape:snap-bbox-edge-midpoints="true"
     inkscape:snap-bbox-midpoints="true"
     showborder="false"
     inkscape:snap-center="true"
     inkscape:snap-object-midpoints="true"
     inkscape:snap-midpoints="true"
     inkscape:snap-smooth-nodes="true"
     inkscape:snap-text-baseline="true"
     inkscape:deskcolor="#d1d1d1"><inkscape:grid
       type="xygrid"
       id="grid5883"
       spacingx="2"
       spacingy="2"
       enabled="true"
       visible="false"
       empspacing="4"
       originx="0"
       originy="0"
       units="px" /><sodipodi:guide
       position="64,8"
       orientation="0,1"
       id="guide1073"
       inkscape:locked="false"
       inkscape:label=""
       inkscape:color="rgb(0,0,255)" /><sodipodi:guide
       position="12,64"
       orientation="1,0"
       id="guide1075"
       inkscape:locked="false"
       inkscape:label=""
       inkscape:color="rgb(0,0,255)" /><sodipodi:guide
       position="64,104"
       orientation="0,1"
       id="guide1099"
       inkscape:locked="false"
       inkscape:label=""
       inkscape:color="rgb(0,0,255)" /><sodipodi:guide
       position="64,128"
       orientation="0,1"
       id="guide993"
       inkscape:locked="false"
       inkscape:label=""
       inkscape:color="rgb(0,0,255)" /><sodipodi:guide
       position="104,64"
       orientation="1,0"
       id="guide995"
       inkscape:locked="false"
       inkscape:label=""
       inkscape:color="rgb(0,0,255)" /><sodipodi:guide
       position="9.2651362e-08,64"
       orientation="1,0"
       id="guide867"
       inkscape:locked="false"
       inkscape:label=""
       inkscape:color="rgb(0,0,255)" /><sodipodi:guide
       position="120,64"
       orientation="1,0"
       id="guide869"
       inkscape:locked="false"
       inkscape:label=""
       inkscape:color="rgb(0,0,255)" /><sodipodi:guide
       position="64,116"
       orientation="0,1"
       id="guide871"
       inkscape:locked="false"
       inkscape:label=""
       inkscape:color="rgb(0,0,255)" /><inkscape:grid
       type="xygrid"
       id="grid873"
       spacingx="1"
       spacingy="1"
       empspacing="8"
       color="#000000"
       opacity="0.49019608"
       empcolor="#000000"
       empopacity="0.08627451"
       dotted="true"
       originx="0"
       originy="0"
       units="px"
       visible="false" /><sodipodi:guide
       position="24,64"
       orientation="1,0"
       id="guide877"
       inkscape:locked="false"
       inkscape:label=""
       inkscape:color="rgb(0,0,255)" /><sodipodi:guide
       position="116,64"
       orientation="1,0"
       id="guide879"
       inkscape:locked="false"
       inkscape:label=""
       inkscape:color="rgb(0,0,255)" /><sodipodi:guide
       position="64,120"
       orientation="0,1"
       id="guide881"
       inkscape:locked="false"
       inkscape:label=""
       inkscape:color="rgb(0,0,255)" /><sodipodi:guide
       position="64,12"
       orientation="0,1"
       id="guide883"
       inkscape:locked="false"
       inkscape:label=""
       inkscape:color="rgb(0,0,255)" /><sodipodi:guide
       position="8,64"
       orientation="1,0"
       id="guide885"
       inkscape:locked="false"
       inkscape:label=""
       inkscape:color="rgb(0,0,255)" /><sodipodi:guide
       position="128,64"
       orientation="1,0"
       id="guide887"
       inkscape:locked="false"
       inkscape:label=""
       inkscape:color="rgb(0,0,255)" /><sodipodi:guide
       position="64,0"
       orientation="0,1"
       id="guide897"
       inkscape:locked="false"
       inkscape:label=""
       inkscape:color="rgb(0,0,255)" /><sodipodi:guide
       position="64,24"
       orientation="0,1"
       id="guide899"
       inkscape:locked="false"
       inkscape:label=""
       inkscape:color="rgb(0,0,255)" /><sodipodi:guide
       position="256,256"
       orientation="-0.70710678,0.70710678"
       id="guide950"
       inkscape:locked="false"
       inkscape:label=""
       inkscape:color="rgb(0,0,255)" /><sodipodi:guide
       position="64,64"
       orientation="0.70710678,0.70710678"
       id="guide952"
       inkscape:locked="false"
       inkscape:label=""
       inkscape:color="rgb(0,0,255)" /></sodipodi:namedview><metadata
     id="metadata4"><rdf:RDF><cc:Work
         rdf:about=""><dc:format>image/svg+xml</dc:format><dc:type
           rdf:resource="http://purl.org/dc/dcmitype/StillImage" /><dc:creator><cc:Agent><dc:title>GNOME Design Team</dc:title></cc:Agent></dc:creator><dc:source /><cc:license
           rdf:resource="http://creativecommons.org/licenses/by-sa/4.0/" /><dc:title>Adwaita Icon Template</dc:title><dc:subject><rdf:Bag /></dc:subject><dc:date /><dc:rights><cc:Agent><dc:title /></cc:Agent></dc:rights><dc:publisher><cc:Agent><dc:title /></cc:Agent></dc:publisher><dc:identifier /><dc:relation /><dc:language /><dc:coverage /><dc:description /><dc:contributor><cc:Agent><dc:title /></cc:Agent></dc:contributor></cc:Work><cc:License
         rdf:about="http://creativecommons.org/licenses/by-sa/4.0/"><cc:permits
           rdf:resource="http://creativecommons.org/ns#Reproduction" /><cc:permits
           rdf:resource="http://creativecommons.org/ns#Distribution" /><cc:requires
           rdf:resource="http://creativecommons.org/ns#Notice" /><cc:requires
           rdf:resource="http://creativecommons.org/ns#Attribution" /><cc:permits
           rdf:resource="http://creativecommons.org/ns#DerivativeWorks" /><cc:requires
           rdf:resource="http://creativecommons.org/ns#ShareAlike" /></cc:License></rdf:RDF></metadata><g
     inkscape:groupmode="layer"
     id="layer4"
     inkscape:label="App Icon 1"><g
       style="fill:none"
       id="g1"
       transform="matrix(0.52650649,0,0,0.52650649,12.675516,12.451005)"><path
         d="M 18.8655,1.32076 C 44.1654,-11.4972 194,72.5628 194,98.6777 193.984,124.834 43.8893,208.712 18.8655,196.035 -6.15027,183.357 -6.42632,14.1304 18.8655,1.31249 Z"
         fill="#ffffff"
         id="path1" /><path
         d="M 34.6377,26.7788 C 38.5876,24.7677 46.6946,26.0064 57,29.3843 V 101.585 C 55.5641,101.204 54.0559,101 52.5,101 42.8351,101 35,108.836 35,118.5 c 3e-4,9.665 7.8352,17.5 17.5,17.5 9.6649,0 17.4998,-7.835 17.5,-17.5 0,-0.167 -0.0031,-0.334 -0.0078,-0.5 H 70 V 34.269 c 38.534,16.0451 92.531,50.4955 92.531,63.959 -0.007,10.074 -30.199,31.811 -61.531,48.854 v -46.667 c 1.436,0.381 2.944,0.585 4.5,0.585 9.665,0 17.5,-7.8347 17.5,-17.4995 0,-9.665 -7.835,-17.5 -17.5,-17.5 -9.4977,0 -17.2275,7.5662 -17.4921,17 H 88 v 70.8455 c -23.8501,11.835 -46.006,19.576 -53.3623,15.83 -18.2672,-9.305 -18.4688,-133.4945 0,-142.903 z"
         fill="url(#paint0_linear_8_15)"
         id="path2"
         style="fill:url(#paint0_linear_8_15)" /></g></g></svg>

<svg width="194" height="198" viewBox="0 0 194 198" fill="none" xmlns="http://www.w3.org/2000/svg">
<path d="M18.8655 1.32076C44.1654 -11.4972 194 72.5628 194 98.6777C193.984 124.834 43.8893 208.712 18.8655 196.035C-6.15027 183.357 -6.42632 14.1304 18.8655 1.31249L18.8655 1.32076Z" fill="white"/>
<path d="M34.6377 26.7788C38.5876 24.7677 46.6946 26.0064 57 29.3843V101.585C55.5641 101.204 54.0559 101 52.5 101C42.8351 101 35 108.836 35 118.5C35.0003 128.165 42.8352 136 52.5 136C62.1649 136 69.9998 128.165 70 118.5C70 118.333 69.9969 118.166 69.9922 118H70V34.269C108.534 50.3141 162.531 84.7645 162.531 98.228C162.524 108.302 132.332 130.039 101 147.082V100.415C102.436 100.796 103.944 101 105.5 101C115.165 101 123 93.1653 123 83.5005C123 73.8355 115.165 66.0005 105.5 66.0005C96.0023 66.0005 88.2725 73.5667 88.0079 83.0005H88V153.846C64.1499 165.681 41.994 173.422 34.6377 169.676C16.3705 160.371 16.1689 36.1815 34.6377 26.773V26.7788Z" fill="url(#paint0_linear_8_15)"/>
<defs>
<linearGradient id="paint0_linear_8_15" x1="16.9859" y1="53.5218" x2="136.216" y2="118.414" gradientUnits="userSpaceOnUse">
<stop offset="0.0172405" stop-color="#AA5DC3"/>
<stop offset="1" stop-color="#0E9EDA"/>
</linearGradient>
</defs>
</svg>
